src/assets/images/bin.svg

<svg fill="none" height="18" viewBox="0 0 18 18" width="18" xmlns="http://www.w3.org/2000/svg"><g stroke="#fff"><path d="m2.20703 4.61902h1.4709 11.76717"/><path d="m13.974 4.61917v10.29633c0 .3901-.1549.7642-.4308 1.04-.2758.2759-.65.4309-1.0401.4309h-7.35447c-.3901 0-.76423-.155-1.04008-.4309-.27585-.2758-.43082-.6499-.43082-1.04v-10.29633m2.20635 0v-1.4709c0-.39011.15497-.76424.43082-1.04009.27585-.27584.64998-.43081 1.04008-.43081h2.94182c.3901 0 .7642.15497 1.0401.43081.2758.27585.4308.64998.4308 1.04009v1.4709"/><path d="m7.35352 8.29639v4.41271"/><path d="m10.2969 8.29639v4.41271"/></g></svg>

<svg
        width="18"
        height="18"
        viewBox="0 0 18 18"
        fill="none"
        xmlns="http://www.w3.org/2000/svg"
>
    <path d="M2.20703 4.61902H3.67793H15.4451" stroke="white"/>
    <path d="M13.974 4.61917V14.9155C13.974 15.3056 13.8191 15.6797 13.5432 15.9555C13.2674 16.2314 12.8932 16.3864 12.5031 16.3864H5.14863C4.75853 16.3864 4.3844 16.2314 4.10855 15.9555C3.8327 15.6797 3.67773 15.3056 3.67773 14.9155V4.61917M5.88408 4.61917V3.14827C5.88408 2.75816 6.03905 2.38403 6.3149 2.10818C6.59075 1.83234 6.96488 1.67737 7.35498 1.67737H10.2968C10.6869 1.67737 11.061 1.83234 11.3369 2.10818C11.6127 2.38403 11.7677 2.75816 11.7677 3.14827V4.61917"
          stroke="white"/>
    <path d="M7.35352 8.29639V12.7091" stroke="white"/>
    <path d="M10.2969 8.29639V12.7091" stroke="white"/>
</svg>
